X: 1
T: Oliver Jack Reel
S: Lynne Johnson, Brae School
R: reel
B: Haand me doon da fiddle, 1979
Z: 2012 John Chambers <jc:trillian.mit.edu>
M: C
L: 1/8
F:http://john-chambers.us/~jc/music/book/TomAnderson/HaandMeDoonDaFiddle/12_OLIVER_JACK.abc	 2015-10-29 193533 UT
K: G
"D7"Bc |"G"d2dc B2ge | d2u(dc) vBGBc | d2dc B2ge | d4 d2 :|
Bd|"D7"c2cA "G"B2BG |"D7"A2AG FGAB |"D7"c2cA "G"BGGB |[1 "D7"A2"G"d2 G3B :|[2 "D"A2d2 "G"G2 |]
